X:51
T: An bunnn bu, S. 124
N: I0550
O: Irland
S: O'SULLIVAN, Donal: Song of the Irish]
R: Trinklied]
M: 4/4
L: 1/8
K: C
cB | A2G2F2EF | G3ABAGE | G2EDC2D2 | C2C2C2
cB | A2G2F2EF | G2GABAGE | G2EDC2D2 | C2C2C3
G | c2c2c3d | e2fed3d | e2ccc2dc | B2G2G2
cB | A2G2F2EF | G3ABAGE | G2EDC2D2 | C2C2C2

@@@ Tune index: 7326
